X: 17407
T: High, The
R: reel
M: 4/4
K: Amajor
e|a2 e<a c>AA>a|c<Ae>A c>AA>e|
=g2 f<g a>ef>d|B<=Gd>G B>GG||
a|c<Ae>A f>Ae>d|c<Ae>A c>AA>a|

